X: 1
T: Pippi Langstrumpf
M: 2/4
L: 1/8
R: polka
K: Gmaj
DG BG|A2 c/B/A/G/|FA DF|G2 B2|
DG BG|A2 c/B/A/G/|FA DF|G2 z2||
|:BB BB|c2 cc/B/|AA AG|FG A2|
BB BB|c2 cB|AA GF|1G2 z2:|2G2 B2||
c2 d2|e3 g|fe dc|d3 f|
ed cB|c3 e|dc BA|
[1B2 c2|dB cd:|2B2 A2|G2 z2||
